packages/kaspersky-hexa-ui-icons/src/iconsSVGs/40/Info.svg

<svg xmlns="http://www.w3.org/2000/svg" width="40" height="40" fill="none" viewBox="0 0 40 40"><path fill="#000" fill-rule="evenodd" d="M38 20c0 9.9411-8.0589 18-18 18S2 29.9411 2 20 10.0589 2 20 2s18 8.0589 18 18m-19 5c0 .5523.4477 1 1 1s1-.4477 1-1v-8c0-.5523-.4477-1-1-1s-1 .4477-1 1zm1-11c-.5523 0-1-.4477-1-1s.4477-1 1-1 1 .4477 1 1-.4477 1-1 1"/></svg>

<svg width="40" height="40" viewBox="0 0 40 40" fill="none" xmlns="http://www.w3.org/2000/svg">
<path fill-rule="evenodd" clip-rule="evenodd" d="M38 20C38 29.9411 29.9411 38 20 38C10.0589 38 2 29.9411 2 20C2 10.0589 10.0589 2 20 2C29.9411 2 38 10.0589 38 20ZM19 25C19 25.5523 19.4477 26 20 26C20.5523 26 21 25.5523 21 25V17C21 16.4477 20.5523 16 20 16C19.4477 16 19 16.4477 19 17V25ZM20 14C19.4477 14 19 13.5523 19 13C19 12.4477 19.4477 12 20 12C20.5523 12 21 12.4477 21 13C21 13.5523 20.5523 14 20 14Z" fill="black"/>
</svg>
